!!!!SEGMENT: pl-sa--68-a-ii-8--001-006_mrozowski-tadeusz--missa-ex-g-sanctus.krn
!!!cenid: 17xx:330
!!!COM: Mrozowski, Tadeusz
!!!COM-rismID: pe30020313
!!!CDT: <1790->1810
!!!CNT: Polish
!!!OPR: Missa ex G
!!!OTL: Sanctus
!!!OMV: 006
!!!PDT:
!!!AGN: Sacred; Mass
!!!YEC: Copyright 2022 Narodowy Instytut Fryderyka Chopina (https://polishscores.org)
!!!YEM: License CC-BY-4.0 (https://creativecommons.org/licenses/by/4.0)
!!!SMS-siglum: PL-SA
!!!SMS-shelfmark: 68/A II 8
!!!SMS-shelfwork: 001-006 M
!!!SMS-variant:
!!!SMS-altvar:
!!!NIFC-rismSourceID: 1001035348
!!!NIFC-rismChildID: 1001035348
!!!NIFC-islandoraID: none
!!!URL-pdf-islandora:
!!!URL-scan: https://bc.bdsandomierz.pl/dlibra/publication/1339/edition/1307/content @EN{Scan in the Sandomierz Diocese Digital Library} @PL{Skany w portalu Cyfrowa Biblioteka Diecezjalna w Sandomierzu}
!!!IIIF:
!!!ONB-nifc: UWAGA: części Mszy: Kyrie, Gloria, Symphonia post Epistolam, Credo, Tantum Ergo Sacramentum, Sanctus, Agnus, Dona nobis, Presto
!!!OMD: Adagio
!!!AIN: 2 violn 1 vox
!!!key: G
**kern	**dynam	**kern	**dynam	**kern	**dynam	**kern	**text
*part4	*	*part3	*	*part2	*	*part1	*
*staff4	*	*staff3	*	*staff2	*	*staff1	*
*I"Basso	*	*I"Violino 2do.	*	*I"Violino. Primo.	*	*I"Canto Solo.	*
*I'b (=bc)	*	*I'vn 2	*	*I'vn 1	*	*I'S	*
*	*	*Ivioln	*	*Ivioln	*	*Ivox	*
*	*	*ICstr	*	*ICstr	*	*ICvox	*
*IGcont	*	*	*	*	*	*IGsolo	*
*clefF4	*	*clefG2	*	*clefG2	*	*clefC1	*
*k[f#]	*	*k[f#]	*	*k[f#]	*	*k[f#]	*
*G:	*	*G:	*	*G:	*	*G:	*
*M4/4	*	*M4/4	*	*M4/4	*	*M4/4	*
*met(c)	*	*met(c)	*	*met(c)	*	*met(c)	*
*>[A,B,A]	*	*>[A,B,A]	*	*>[A,B,A]	*	*>[A,B,A]	*
=1	=1	=1	=1	=1	=1	=1	=1
*>A	*	*>A	*	*>A	*	*>A	*
!LO:TX:a:t=Adagio.	!	!LO:TX:a:t=Adagio	!LO:DY:b:t=for.	!LO:TX:a:i:t=adagio	!LO:DY:b:t=for.	!LO:TX:a:t=Adagio	!
4G\	.	4b\	f	4dd\	f	4dd\	San-
4GG/	.	4b\	.	4dd\	.	4dd\	-ctus
2r	.	8r	.	8r	.	2r	.
!	!	!	!LO:DY:b:t=p.	!	!LO:DY:b:t=p&colon;	!	!
.	.	8g/L	p	8b'\L	p	.	.
.	.	8a/	.	8cc'\	.	.	.
.	.	8b/J	.	8dd'\J	.	.	.
=2	=2	=2	=2	=2	=2	=2	=2
!	!	!	!LO:DY:b:t=for.	!	!LO:DY:b:t=for.	!	!
4c\	.	4cc\	f	4ee\	f	4ee\	San-
4C/	.	4cc\	.	4ee\	.	4ee\	-ctus
2r	.	8r	.	8r	.	2r	.
!	!	!	!LO:DY:b:t=p.	!	!LO:DY:b:t=p.	!	!
.	.	8cc\L	p	8ee'\L	p	.	.
.	.	8a\	.	8ff#'\	.	.	.
.	.	8b\J	.	8gg'\J	.	.	.
=3	=3	=3	=3	=3	=3	=3	=3
!	!	!	!LO:DY:b:t=for.	!	!LO:DY:b:t=for.	!	!
4G\	.	4b/	f	4dd\	f	4dd\	San-
4GG/	.	4b/	.	4dd\	.	4dd\	-ctus
2r	.	8r	.	8r	.	2r	.
!	!	!	!	!	!LO:DY:b:t=p.	!	!
.	.	8b/L	.	8dd'\L	p	.	.
.	.	8a/	.	8cc'\	.	.	.
.	.	8g/J	.	8b'\J	.	.	.
=4	=4	=4	=4	=4	=4	=4	=4
!	!	!	!	!	!LO:DY:b:t=for.	!	!
4G\	.	8b/L	.	8dd\L	f	8dd\L	Do-
.	.	16a/L	.	16cc\L	.	16cc\L	-mi-
.	.	16g/JJ	.	16b\JJ	.	16b\JJ	-nus
8D\L	.	8a/L	.	8cc\L	.	8cc\L	De-
8D\J	.	8f#/J	.	8a\J	.	8a\J	-us
4G\	.	(16g/LL	.	8b\L	.	16b\LL	sa-
.	.	16a/	.	.	.	16b\J	-bba-
.	.	16a/	.	8b\J	.	8b\J	-oth
.	.	16b/JJ)	.	.	.	.	.
!	!	!	!	!	!LO:DY:b:t=p.	!	!
4r	.	(16g/LL	.	(16b\LL	p	4r	.
.	.	16a/	.	16cc\	.	.	.
.	.	16a/	.	16cc\	.	.	.
.	.	16b/JJ)	.	16dd\JJ)	.	.	.
=5	=5	=5	=5	=5	=5	=5	=5
*tremolo	*	*	*	*	*	*	*
!	!	!	!	!	!LO:HP:b:t=Cresc&colon;	!	!
!	!	!	!	!	!	!LO:TX:a:t=3	!
8D/L	.	(16b\LL	.	(16dd\LL	<	0r	.
.	.	16cc\	.	16ee\	.	.	.
8D/	.	16cc\	.	16ee\	.	.	.
.	.	16dd\JJ)	.	16ff#\JJ	.	.	.
8D/	.	(16dd\LL	.	16ff#\LL)	.	.	.
.	.	16ee\	.	(16gg\	.	.	.
8D/J	.	16ee\	.	16gg\	.	.	.
.	.	16ff#\JJ)	.	16aa\JJ)	.	.	.
8D/L	.	(16ff#\LL	.	(16aa\LL	.	.	.
.	.	16gg\	.	16bb\	.	.	.
8D/	.	16gg\	.	16bb\	.	.	.
.	.	16aa\JJ)	.	16ccc\JJ)	.	.	.
8D/	.	(16aa\LL	.	(16ccc\LL	.	.	.
.	.	16gg\	.	16bb\	.	.	.
8D/J	.	16gg\	.	16bb\	.	.	.
.	.	16ff#\JJ)	.	16aa\JJ)	.	.	.
=6	=6	=6	=6	=6	=6	=6	=6
*2\right	*	*	*	*	*	*	*
8G\L	.	16gg\LL	.	(16bb\LL	.	.	.
.	.	16aa\	.	16ccc\	.	.	.
8G\	.	16aa\	.	16ccc\	.	.	.
.	.	16bb\JJ	.	16ddd\JJ)	.	.	.
8G\	.	16bb\LL	.	16ddd\LL	.	.	.
.	.	16ccc\	.	16eee\	.	.	.
8G\J	.	16ccc\	.	16eee\	.	.	.
.	.	16ddd\JJ	.	16fff#\JJ	.	.	.
8G\L	.	16eee\LL	.	16ggg\LL	.	.	.
.	.	16ddd\	.	16fff#\	.	.	.
8G\	.	16ccc\	.	16eee\	.	.	.
.	.	16bb\JJ	.	16ddd\JJ	.	.	.
8G\	.	8aa\L	.	8ccc'\L	.	.	.
8G\J	.	8gg\J	.	8ccc'\J	.	.	.
*Xtremolo	*	*	*	*	*	*	*
!	!	!LO:LB:g=original	!	!	!	!	!
=7	=7	=7	=7	=7	=7	=7	=7
*	*	*2\right	*	*2\right	*	*	*
!	!	!	!	!	!	!LO:TX:a:t=7.	!
.	.	8qqgg/	.	.	.	.	.
8d\L	.	2ff#;>\	.	2ccc;>\	.	1r	.
8A\J	.	.	.	.	.	.	.
4D\	.	.	.	.	.	.	.
!	!	!LO:TX:a:t=7.	!	!LO:TX:a:t=7.	!	!	!
2r	.	2r	.	2r	.	.	.
!LO:LB:g=original	!	!	!	!LO:LB:g=original	!	!LO:LB:g=original	!
=8||	=8||	=8||	=8||	=8||	=8||	=8||	=8||
*M3/8	*	*M3/8	*	*M3/8	*	*M3/8	*
!LO:TX:a:t=allo.	!	!LO:TX:a:t=allo	!	!LO:TX:a:t=allo.	!	!LO:TX:a:i:t=allo.	!
!LO:TX:a:t=Ple-\nni.:rj	!	!LO:TX:b:t=Pleni	!	!LO:TX:b:t=Pleni	!	!	!
8d|\L	.	8ee'\L	.	8ee\L	.	8ee\L	Ple-
8B|\	.	8b'\	.	8b\	.	8b\	-ni-
8G|\J	.	8g'\J	.	8g\J	.	8g\J	-sunt
=9	=9	=9	=9	=9	=9	=9	=9
8F#\L	.	8f#/L	.	8f#/L	.	8f#/L	cae-
8G\J	.	8g/J	.	8g/J	.	8g/J	-li
8r	.	8r	.	8r	.	8r	.
=10	=10	=10	=10	=10	=10	=10	=10
8e\L	.	8ee\L	.	8ee\L	.	8ee\L	Cae-
8c\	.	8cc'\	.	8cc\	.	8cc\	-li
8A\J	.	8a'\J	.	8a\J	.	8a\J	et
=11	=11	=11	=11	=11	=11	=11	=11
8G#X\L	.	8g#X/L	.	8g#X/L	.	8g#X\L	ter-
8A\J	.	8a/J	.	8a/J	.	8a\J	-ra
8r	.	8r	.	8r	.	8r	.
=12	=12	=12	=12	=12	=12	=12	=12
*tremolo	*	*tremolo	*	*tremolo	*	*	*
8D\L	.	8a/L	.	8ff#\L	.	4ff#\	glo-
8D\	.	8a/	.	8ff#\	.	.	.
8D\J	.	8a/J	.	8ff#\J	.	8ff#\	-ria
*	*	*Xtremolo	*	*Xtremolo	*	*	*
=13	=13	=13	=13	=13	=13	=13	=13
8G\L	.	16b/LL	.	16gg\LL	.	16gg\LL	tua
.	.	16a/J	.	16ff#\JJ	.	16ff#\J	.
8G\	.	8b/J	.	8gg\	.	8gg\J	.
8G\J	.	8r	.	8r	.	8r	.
*Xtremolo	*	*	*	*	*	*	*
=14	=14	=14	=14	=14	=14	=14	=14
8F#\L	.	8cc\L	.	8bb\L	.	4bb\	glo-
8F#\	.	8cc\	.	8aa\	.	.	.
8G\J	.	8b\J	.	8gg\J	.	8gg\	-ria
!	!	!	!	!	!	!LO:LB:g=original	!
=15	=15	=15	=15	=15	=15	=15	=15
*tremolo	*	*	*	*	*	*	*
8D\L	.	4b\	.	8gg\L	.	8gg\L	tua
8D\	.	.	.	8ff#\J	.	8ff#\J	.
8D\J	.	8a\	.	8r	.	8r	.
*Xtremolo	*	*	*	*	*	*	*
=16	=16	=16	=16	=16	=16	=16	=16
*	*	*^	*	*	*	*	*
8r	.	4b/	4d/	.	4dd\	.	4dd\	O-
!LO:TX:t=P:problem=mixed beam	!	!	!	!	!	!	!	!
8G\L	.	.	.	.	.	.	.	.
8GG/J	.	8b/	8d/	.	8dd\	.	8dd\	.
=17	=17	=17	=17	=17	=17	=17	=17	=17
8r	.	4cc/	4d/	.	4ee\	.	4ee\	-san-
!LO:TX:t=P:problem=mixed beam	!	!	!	!	!	!	!	!
8c\L	.	.	.	.	.	.	.	.
8C/J	.	8cc/	8d/	.	8ee\	.	8ee\	-na
!LO:LB:g=original	!	!	!	!	!	!	!	!
=18	=18	=18	=18	=18	=18	=18	=18	=18
8r	.	4a/	4d/	.	4ff#\	.	4ff#\	inn
8D\L	.	.	.	.	.	.	.	.
8D\J	.	8a/	8d/	.	8ff#\	.	8ff#\	e-
=19	=19	=19	=19	=19	=19	=19	=19	=19
8r	.	4b/	4d/	.	4gg\	.	8gg\L	-xcel-
!LO:TX:t=P:problem=mixed beam	!	!	!	!	!	!	!	!
8G\L	.	.	.	.	.	.	8gg\J	-sis
8GG/J	.	8b/	8d/	.	8gg\	.	8r	.
*	*	*v	*v	*	*	*	*	*
=20	=20	=20	=20	=20	=20	=20	=20
*tremolo	*	*	*	*	*	*	*
!	!	!	!	!	!	!LO:TX:a:t=4	!
!	!	!	!	!	!	!LO:TX:a:t=16.	!
8G\L	.	8.b\L	.	8.dd\L	.	1.r	.
8G\	.	.	.	.	.	.	.
.	.	16cc\K	.	16ee\K	.	.	.
8G\J	.	8b\J	.	8dd\J	.	.	.
!	!	!	!	!	!	!LO:LB:g=original	!
=21	=21	=21	=21	=21	=21	=21	=21
8c\L	.	8.cc\L	.	8.ee\L	.	.	.
8c\	.	.	.	.	.	.	.
.	.	16dd\K	.	16ff#\K	.	.	.
8c\J	.	8cc\J	.	8ee\J	.	.	.
=22	=22	=22	=22	=22	=22	=22	=22
8D\L	.	8.a/L	.	8.ff#\L	.	.	.
8D\	.	.	.	.	.	.	.
.	.	16b/K	.	16gg\K	.	.	.
8D\J	.	8a/J	.	8ff#\J	.	.	.
*Xtremolo	*	*	*	*	*	*	*
=23	=23	=23	=23	=23	=23	=23	=23
!LO:TX:t=P:problem=mixed beam	!	!	!	!	!	!	!
8G\L	.	8b/L	.	8gg\L	.	.	.
8GG/J	.	8b/J	.	8gg\J	.	.	.
!	!	!LO:TX:a:t=16.	!	!LO:TX:a:t=16.	!	!	!
8r	.	8r	.	8r	.	.	.
!LO:LB:g=original	!	!LO:LB:g=original	!	!LO:LB:g=original	!	!	!
=24||	=24||	=24||	=24||	=24||	=24||	=24||	=24||
*	*	*	*	*	*	*ok[c#f#]	*
*k[f#c#]	*	*k[f#c#]	*	*k[f#c#]	*	*k[f#c#]	*
*M2/4	*	*M2/4	*	*M2/4	*	*M2/4	*
!LO:TX:a:t=Benedictus.	!	!	!	!LO:TX:b:t=Benedictus	!	!	!
!LO:TX:a:t=Ada-\ngio:rj	!	!LO:TX:a:t=adagio	!	!LO:TX:a:t=adagio	!	!LO:TX:a:t=17.	!
4d\	.	8r	.	4dd\	.	2r	.
.	.	8A/L 8f#/	.	.	.	.	.
16d\LL	.	8A/ 8f#/	.	16dd\LL	.	.	.
16d\	.	.	.	16ff#\	.	.	.
16A\	.	8A/J 8f#/	.	16ee\	.	.	.
16A\JJ	.	.	.	16gg\JJ	.	.	.
=25	=25	=25	=25	=25	=25	=25	=25
8r	.	8r	.	16gg\LL	.	2r	.
.	.	.	.	16ff#\	.	.	.
8d\	.	8A/L 8f#/	.	16bb\	.	.	.
.	.	.	.	16aa\JJ	.	.	.
16D\LL	.	8A/ 8f#/	.	4aaT\	.	.	.
16d\	.	.	.	.	.	.	.
16D\	.	8A/J 8f#/	.	.	.	.	.
16d\JJ	.	.	.	.	.	.	.
=26	=26	=26	=26	=26	=26	=26	=26
!LO:TX:t=P:problem=mixed beam	!	!	!	!	!	!	!
16A\LL	.	(>16ff#\LL	.	(16aa\LL	.	2r	.
16AA/	.	16ee\	.	16gg\	.	.	.
16AA/	.	16ee\	.	16gg\	.	.	.
16AA/JJ	.	16cc#\JJ)	.	16ee\JJ)	.	.	.
*tremolo	*	*	*	*	*	*	*
16AA/LL	.	8a/L	.	(16dd\LL	.	.	.
16AA/	.	.	.	16cc#\	.	.	.
16AA/	.	8a/J	.	16b\	.	.	.
16AA/JJ	.	.	.	16a\JJ)	.	.	.
*Xtremolo	*	*	*	*	*	*	*
=27	=27	=27	=27	=27	=27	=27	=27
4D\	.	4A/ 4f#/	.	16.dd\LL	.	2r	.
.	.	.	.	32ff#\K	.	.	.
.	.	.	.	16.ee\	.	.	.
.	.	.	.	32gg\JJk	.	.	.
4r	.	4r	.	16.ff#\LL	.	.	.
.	.	.	.	32aa\K	.	.	.
.	.	.	.	16.gg\	.	.	.
.	.	.	.	32bb\JJk	.	.	.
=28	=28	=28	=28	=28	=28	=28	=28
!	!	!	!LO:DY:b:t=for.	!	!	!	!
8.A\L	.	8.a/L	f	8.aa\L	.	2r	.
32B\LL	.	32b/LL	.	32bb\LL	.	.	.
32c#\JJJ	.	32cc#/JJJ	.	32ccc#\JJJ	.	.	.
16d'\LL	.	16dd'/LL	.	16ddd'\LL	.	.	.
16A'\	.	16a'/	.	16aa'\	.	.	.
16F#'\	.	16f#'/	.	16ff#'\	.	.	.
16D'\JJ	.	16d'/JJ	.	16dd'\JJ	.	.	.
!LO:LB:g=original	!	!	!	!	!	!	!
=29	=29	=29	=29	=29	=29	=29	=29
!LO:TX:t=P:problem=mixed beam	!	!	!	!LO:TX:t=P:problem=mixed beam	!	!	!
8A\L	.	8a/L	.	8aa\L	.	2r	.
16AA/L	.	16A/L	.	16a/L	.	.	.
16AA/JJ	.	16A/JJ	.	16a/JJ	.	.	.
4AA/	.	4A/	.	4a/	.	.	.
=30	=30	=30	=30	=30	=30	=30	=30
*tremolo	*	*	*	*	*	*	*
!	!	!LO:TX:t=P:problem=repetycja taktów 30-37	!	!LO:TX:t=P:problem=repetycja taktów 30-37	!	!	!
!	!	!	!	!	!LO:DY:b:t=p.	!	!
8AA/L	.	8.cc#\L	.	8.ee\L	p	2r	.
8AA/	.	.	.	.	.	.	.
.	.	16dd\Jk	.	16ff#\Jk	.	.	.
8AA/	.	16ee\LL	.	16gg\LL	.	.	.
.	.	16dd\	.	16ff#\	.	.	.
8AA/J	.	16ee\	.	16gg\	.	.	.
.	.	16cc#\JJ	.	16ee\JJ	.	.	.
=31	=31	=31	=31	=31	=31	=31	=31
8D\L	.	32ff#\LLL	.	32ff#\LLL	.	2r	.
.	.	32gg\	.	32gg\	.	.	.
.	.	32aa\	.	32aa\	.	.	.
.	.	32bb\JJJ	.	32bb\JJJ	.	.	.
8D\	.	16ff#\LL	.	16aa\LL	.	.	.
.	.	16ff#\JJ	.	16aa\JJ	.	.	.
8D\	.	16ff#'\LL	.	16aa\LL	.	.	.
.	.	16ff#'\	.	16aa\	.	.	.
8D\J	.	(16ee\	.	16gg\	.	.	.
.	.	16dd\JJ)	.	16ff#\JJ	.	.	.
=32	=32	=32	=32	=32	=32	=32	=32
8AA/L	.	8.cc#\L	.	8.ee\L	.	2r	.
8AA/	.	.	.	.	.	.	.
.	.	16dd\Jk	.	16ff#\Jk	.	.	.
8AA/	.	16ee\LL	.	16gg\LL	.	.	.
.	.	16dd\	.	16ff#\	.	.	.
8AA/J	.	16ee\	.	16gg\	.	.	.
.	.	16cc#\JJ	.	16ee\JJ	.	.	.
=33	=33	=33	=33	=33	=33	=33	=33
8D\L	.	(32dd\LLL	.	32ff#\LLL	.	2r	.
.	.	32ee\	.	32gg\	.	.	.
.	.	32ff#\	.	32aa\	.	.	.
.	.	32gg\JJJ)	.	32bb\JJJ	.	.	.
8D\	.	16ff#'\	.	16aa'\	.	.	.
.	.	16r	.	16r	.	.	.
!	!	!LO:TX:t=P:problem=brak jednej 16	!	!LO:TX:t=P:problem=brak jednej 16	!	!	!
8D\	.	16ryy	.	16ryy	.	.	.
.	.	16ff#'\LL	.	16aa'\LL	.	.	.
8D\J	.	16ee'\	.	16gg'\	.	.	.
.	.	16dd'\JJ	.	16ff#'\JJ	.	.	.
*Xtremolo	*	*	*	*	*	*	*
=34	=34	=34	=34	=34	=34	=34	=34
!LO:TX:t=P:problem=repetycja taktów 34-35	!	!	!	!	!	!	!
!	!	!	!	!	!LO:DY:b:t=p.	!	!
16c#'\LL	.	8.cc#\L	.	8.ee\L	f	2r	.
16A'\	.	.	.	.	.	.	.
16c#'\	.	.	.	.	.	.	.
16A'\JJ	.	16dd\Jk	.	16ff#\Jk	.	.	.
16c#'\LL	.	16ee\LL	.	16gg\LL	.	.	.
16A'\	.	16dd\	.	16ff#\	.	.	.
16c#'\	.	16ee\	.	16gg\	.	.	.
16A'\JJ	.	16cc#\JJ	.	16ee\JJ	.	.	.
=35	=35	=35	=35	=35	=35	=35	=35
16d'\LL	.	32ff#\LLL	.	32ff#\LLL	.	2r	.
.	.	32gg\	.	32gg\	.	.	.
16A'\	.	32aa\	.	32aa\	.	.	.
.	.	32bb\JJJ	.	32bb\JJJ	.	.	.
16d'\	.	16ff#\LL	.	16aa\LL	.	.	.
16A'\JJ	.	16ff#\JJ	.	16aa\JJ	.	.	.
16d\LL	.	16ff#'\LL	.	16aa\LL	.	.	.
16A\	.	16ff#'\	.	16aa\	.	.	.
16d\	.	(16ee\	.	16gg\	.	.	.
16A\JJ	.	16dd\JJ)	.	16ff#\JJ	.	.	.
=36	=36	=36	=36	=36	=36	=36	=36
16c#'\LL	.	8.cc#\L	.	8.ee\L	.	2r	.
16A'\	.	.	.	.	.	.	.
16c#'\	.	.	.	.	.	.	.
16A'\JJ	.	16dd\Jk	.	16ff#\Jk	.	.	.
16c#'\LL	.	16ee\LL	.	16gg\LL	.	.	.
16A'\	.	16dd\	.	16ff#\	.	.	.
16c#'\	.	16ee\	.	16gg\	.	.	.
16A'\JJ	.	16cc#\JJ	.	16ee\JJ	.	.	.
=37	=37	=37	=37	=37	=37	=37	=37
16d'\LL	.	(32dd\LLL	.	32ff#\LLL	.	2r	.
.	.	32ee\	.	32gg\	.	.	.
16A'\	.	32ff#\	.	32aa\	.	.	.
.	.	32gg\JJJ)	.	32bb\JJJ	.	.	.
16d'\	.	16ff#'\	.	16aa'\	.	.	.
16A'\JJ	.	16r	.	16r	.	.	.
!	!	!LO:TX:t=P:problem=brak jednej 16	!	!LO:TX:t=P:problem=brak jednej 16	!	!	!
16d\LL	.	16ryy	.	16ryy	.	.	.
16A\	.	16ff#'\LL	.	16aa'\LL	.	.	.
16d\	.	16ee'\	.	16gg'\	.	.	.
16A\JJ	.	16dd'\JJ	.	16ff#'\JJ	.	.	.
!	!	!LO:LB:g=original	!	!LO:LB:g=original	!	!	!
=38	=38	=38	=38	=38	=38	=38	=38
8G\L	.	8dd\L	.	(16bb\LL	.	2r	.
.	.	.	.	16ddd\)	.	.	.
8F#\	.	8cc#\	.	16aa'\	.	.	.
.	.	.	.	16aa'\JJ	.	.	.
8E\	.	8a\	.	(16gg\LL	.	.	.
.	.	.	.	16bb\)	.	.	.
8D\J	.	8a\J	.	16ee'\	.	.	.
.	.	.	.	16ee'\JJ	.	.	.
!LO:LB:g=original	!	!	!	!	!	!	!
=39	=39	=39	=39	=39	=39	=39	=39
!LO:TX:t=P:problem=mixed beam	!	!	!	!	!	!	!
8F#\L	.	16a/LL	.	16ff#\LL	.	2r	.
.	.	16f#/JJ	.	16dd\JJ	.	.	.
.	.	.	.	8qqaa/	.	.	.
!	!	!LO:TUP:b:problem=klamra łukowa	!	!	!	!	!
8G\	.	24b/LL	.	16gg\LL	.	.	.
.	.	24a/	.	.	.	.	.
.	.	.	.	32ff#\L	.	.	.
.	.	24g/JJ	.	.	.	.	.
.	.	.	.	32ee'\JJJ	.	.	.
8A\	.	8f#/L	.	8dd\L	.	.	.
8AA/J	.	8e/J	.	8cc#\J	.	.	.
=40	=40	=40	=40	=40	=40	=40	=40
!LO:TX:b:t=Finale.	!	!LO:TX:b:t=Finis	!	!LO:TX:b:t=Finis	!	!LO:TX:a:t=Finis	!
.	.	8qqe/	.	8qqcc#/	.	.	.
4D;>\	.	4f#/	.	4dd;\	.	2r	.
4r	.	4r;>	.	4r	.	.	.
=41||	=41||	=41||	=41||	=41||	=41||	=41||	=41||
*>B	*	*>B	*	*>B	*	*>B	*
!	!	!	!	!	!	!LO:TX:a:t=ada&colon;	!
!LO:TX:t=P:problem=mixed beam	!	!	!	!	!LO:DY:b:t=pp.	!	!
8D\L	.	4A/ 4f#/	.	4dd\	pp	4dd\	Be-
!	!LO:DY:b:t=pp.	!	!	!	!	!	!
8D\	pp	.	.	.	.	.	.
!	!	!	!LO:DY:b:t=pp.	!	!	!	!
8D\	.	16f#/LL	pp	16dd\LL	.	16dd\LL	-ne-
.	.	16dd/	.	16ff#\	.	16ff#\	.
8AA/J	.	16cc#/	.	16ee\	.	16ee\	-dic-
.	.	16ee/JJ	.	16gg\JJ	.	16gg\JJ	-tus
=42	=42	=42	=42	=42	=42	=42	=42
8r	.	16ee\LL	.	16gg\LL	.	16gg\LL	.
.	.	16dd\	.	16ff#\	.	16ff#\JJ	qui
8D\L	.	16gg\	.	16bb\	.	16bb\LL	ve-
.	.	16ff#\JJ	.	16aa\JJ	.	16aa\JJ	.
8D\	.	4ff#\	.	4aaT\	.	4aa\	-nit
8D\J	.	.	.	.	.	.	.
=43	=43	=43	=43	=43	=43	=43	=43
*tremolo	*	*	*	*	*	*	*
!	!	!LO:TUP:a:problem=klamra łukowa	!	!LO:TUP:a:problem=klamra łukowa	!	!	!
8AA/L	.	24ee\LL	.	24gg\LL	.	8gg\	in
.	.	24ff#\	.	24aa\	.	.	.
.	.	24gg\JJ	.	24bb\JJ	.	.	.
!	!	!LO:TUP:a:problem=klamra łukowa	!	!LO:TUP:a:problem=klamra łukowa	!	!	!
8AA/	.	24cc#\LL	.	24ee\LL	.	8ee\	.
.	.	24dd\	.	24ff#\	.	.	.
.	.	24ee\JJ	.	24gg\JJ	.	.	.
!	!	!LO:TUP:a:problem=klamra łukowa	!	!	!	!	!
8AA/	.	24a\LL	.	24cc#\LL	.	8cc#\	no-
.	.	24b\	.	24dd\	.	.	.
.	.	24cc#\JJ	.	24ee\JJ	.	.	.
!	!	!LO:TUP:b:problem=klamra łukowa	!	!LO:TUP:a:problem=klamra łukowa	!	!	!
8AA/J	.	24c#/LL	.	24a\LL	.	16a\	-mi-
.	.	24d/	.	24b\	.	.	.
.	.	.	.	.	.	16a\	-ne
.	.	24e/JJ	.	24cc#\JJ	.	.	.
=44	=44	=44	=44	=44	=44	=44	=44
8D\L	.	16ee\LL	.	16gg\LL	.	16gg\LL	Do-
.	.	16dd\	.	16ff#\	.	16ff#\JJ	.
8D\	.	16gg\	.	16bb\	.	16bb\LL	.
.	.	16ff#\JJ	.	16aa\JJ	.	16aa\JJ	.
8D\	.	4ff#\	.	4aaT\	.	4aa\	-mini
8D\J	.	.	.	.	.	.	.
=45	=45	=45	=45	=45	=45	=45	=45
!	!	!LO:TUP:a:problem=klamra łukowa	!	!LO:TUP:a:problem=klamra łukowa	!	!	!
8AA/L	.	24ee\LL	.	24gg\LL	.	8gg\	in
.	.	24dd\	.	24ff#\	.	.	.
.	.	24ee\JJ	.	24gg\JJ	.	.	.
!	!	!LO:TUP:a:problem=klamra łukowa	!	!LO:TUP:a:problem=klamra łukowa	!	!	!
8AA/	.	24ee\LL	.	24gg\LL	.	8gg\	.
.	.	24dd\	.	24ff#\	.	.	.
.	.	24cc#\JJ	.	24ee\JJ	.	.	.
!	!	!	!	!	!	!LO:LB:g=original	!
=-	=-	=-	=-	=-	=-	=-	=-
!	!	!LO:TUP:a:problem=klamra łukowa	!	!LO:TUP:a:problem=klamra łukowa	!	!	!
8AA/	.	24cc#\LL	.	24ee\LL	.	8ee\	no-
.	.	24b\	.	24dd\	.	.	.
.	.	24cc#\JJ	.	24ee\JJ	.	.	.
8AA/J	.	16a/LL	.	16cc#\LL	.	16cc#\LL	-mi-
.	.	16f#/JJ	.	16a\JJ	.	16a\JJ	-ne
*Xtremolo	*	*	*	*	*	*	*
=46	=46	=46	=46	=46	=46	=46	=46
8d\L	.	16g/LL	.	16dd\LL	.	16dd\LL	Do-
.	.	16a/	.	16ff#\	.	16ff#\	.
8A\J	.	16g/	.	16ee\	.	16ee\	.
.	.	16e/JJ	.	16cc#\JJ	.	16cc#\JJ	-mi-
4D\	.	8f#/	.	8dd\	.	8dd\	-ni
!	!	!LO:TX:t=P:problem=brak 8r	!	!	!	!	!
.	.	8ryy	.	8r	.	8r	.
=47	=47	=47	=47	=47	=47	=47	=47
!LO:TX:t=P:problem=mixed beam	!	!	!	!	!LO:DY:b:t=p.	!	!
8d\L	.	8f#/L	.	8dd'\L	p	8dd\L	.
8D/J	.	8f#/	.	8dd'\J	.	8dd\J	Be-
4r	.	8f#/	.	16aa\LL	.	16aa\LL	-ne-
.	.	.	.	16ff#\	.	16ff#\	.
.	.	8a/J	.	16dd\	.	16dd\	-di-
.	.	.	.	16ccn\JJ	.	16ccn\JJ	-ctus
!LO:LB:g=original	!	!	!	!LO:LB:g=original	!	!	!
=48	=48	=48	=48	=48	=48	=48	=48
!	!	!	!	!	!LO:DY:b:t=for.	!LO:SIC:v:s=8ccn\L	!
4r	.	8a/L	.	8ccn\L	f	8cc#\L	qui-
.	.	8g/J	.	8b\J	.	8b\J	-venit
!LO:TUP:a:problem=klamra łukowa	!	!	!	!LO:TUP:b:problem=klamra łukowa	!	!	!
24G\LL	.	4r	.	24g/LL	.	4r	.
24D\	.	.	.	24d/	.	.	.
24BB\JJ	.	.	.	24B/JJ	.	.	.
8GG/	.	.	.	8G/	.	.	.
!	!	!LO:LB:g=original	!	!	!	!	!
=49	=49	=49	=49	=49	=49	=49	=49
!	!	!	!	!	!LO:DY:b	!	!
8e\L	.	8g#/L	.	8ee'\L	p	8ee\L	Be-
8E\J	.	8g#/	.	8ee'\J	.	8ee\J	-ne-
4r	.	8g#/	.	(16bb\LL	.	16bb\LL	.
.	.	.	.	16gg#X\	.	16gg#X\	-di-
.	.	8b/J	.	16ee\	.	16ee\	.
.	.	.	.	16dd\JJ)	.	16dd\JJ	-ctus
=50	=50	=50	=50	=50	=50	=50	=50
!	!	!	!	!	!LO:DY:b:t=for	!	!
4r	.	8b/L	.	8dd'\L	f	8dd\L	qui
.	.	8a/J	.	8cc#X'\J	.	8cc#X\J	venit
!LO:TUP:a:problem=klamra łukowa	!	!	!	!LO:TUP:b:problem=klamra łukowa	!	!	!
24A\LL	.	4r	.	24a/LL	.	4r	.
24E\	.	.	.	24e/	.	.	.
24C#\JJ	.	.	.	24c#/JJ	.	.	.
8AA/	.	.	.	8A/	.	.	.
!	!	!	!	!	!	!LO:LB:g=original	!
=51	=51	=51	=51	=51	=51	=51	=51
*tremolo	*	*	*	*	*	*	*
!	!	!	!	!	!LO:DY:b:t=pp.	!	!
8D\L	.	8.f#/L	.	8.a/L	pp	8.aa\L	in
8D\	.	.	.	.	.	.	.
.	.	16g/Jk	.	16b/Jk	.	16bb\Jk	.
8D\	.	16f#/LL	.	16a/LL	.	16aa\LL	no-
.	.	16e/	.	16g/	.	16gg\	.
8D\J	.	16c#/	.	16e/	.	16ff#\	-mi-
.	.	16e/JJ	.	16g/JJ	.	16gg\JJ	-ne
*Xtremolo	*	*	*	*	*	*	*
=52	=52	=52	=52	=52	=52	=52	=52
8D\L	.	8e/L	.	8g'/L	.	8.gg\L	Do-
8D\J	.	8d/J	.	8f#'/J	.	.	.
.	.	.	.	.	.	16gg\Jk	-mi-
4r	.	4r	.	(16dd/LL	.	8ff#\	-ni
.	.	.	.	16a/	.	.	.
.	.	.	.	16g/	.	8r	.
.	.	.	.	16f#/JJ)	.	.	.
=53	=53	=53	=53	=53	=53	=53	=53
8D\L	.	8.f#/L	.	8.a/L	.	8.aa\L	in
8D\J	.	.	.	.	.	.	.
.	.	16g/Jk	.	16b/Jk	.	16bb\Jk	no-
8AA|</L	.	8f#/	.	(16bb\LL	.	16aa\LL	-mi-
.	.	.	.	16gg\	.	16gg\	.
8AA|</J	.	8r	.	16ee\	.	16ee\	-ne
.	.	.	.	16cc#\JJ)	.	16cc#\JJ	.
=54	=54	=54	=54	=54	=54	=54	=54
8D\L	.	16g/LL	.	(16ee\LL	.	16ee\LL	Do-
.	.	16f#/J	.	16dd\J)	.	16dd\J	-mi-
8D\	.	8f#/J	.	8dd'\J	.	8dd\J	-ni
8D\	.	4r	.	(16dd\LL	.	4r	.
.	.	.	.	16ee\)	.	.	.
8AA\J	.	.	.	16ff#'\	.	.	.
.	.	.	.	16cc#'\JJ	.	.	.
!LO:LB:g=original	!	!	!	!	!	!	!
=55	=55	=55	=55	=55	=55	=55	=55
!	!	!	!	!	!	!LO:TX:a:t=1	!
32d\LLL	.	(>32dd\LLL	.	(32dd\LLL	.	2r	.
32c#\	.	32cc#\	.	32cc#\	.	.	.
32B\	.	32b\	.	32b\	.	.	.
32A\JJJ	.	32a\JJJ)	.	32a\JJJ)	.	.	.
32B\LLL	.	(<32b/LLL	.	(32b/LLL	.	.	.
32A\	.	32a/	.	32a/	.	.	.
32G\	.	32g/	.	32g/	.	.	.
32F#\JJJ	.	32f#/JJJ)	.	32f#/JJJ)	.	.	.
32G\LLL	.	32g/LLL	.	(32g/LLL	.	.	.
32F#\	.	32f#/	.	32f#/	.	.	.
32E\	.	32e/	.	32e/	.	.	.
32D\JJJ	.	32d/JJJ	.	32d/JJJ)	.	.	.
16F#|>\LL	.	16f#/LL	.	16g/LL	.	.	.
16G#X|>\JJ	.	16g#X/JJ	.	16g#X'/JJ	.	.	.
=56	=56	=56	=56	=56	=56	=56	=56
!	!	!LO:SIC:v:s=8qg#/	!	!LO:TX:b:t=D.C. ad Finis	!	!	!
.	.	8qqg/	.	.	.	.	.
4A;>\	.	4a/	.	4a/	.	4a;>\	Do
!LO:TX:a:t=Da Capo.	!	!LO:TX:b:t=D.C. ad Finis	!	!	!	!LO:TX:a:t=33.	!
!	!	!	!	!LO:TX:a:t=33.	!	!LO:TX:b:t=D.C. ad Finis	!
4r	.	4r;>	.	4r;>	.	4r	.
!LO:LB:g=original	!	!LO:LB:g=original	!	!LO:PB:g=original	!	!LO:LB:g=original	!
==	==	==	==	==	==	==	==
*-	*-	*-	*-	*-	*-	*-	*-
!!!system-decoration: s1[(s2,s3,s4)]
!!!RDF**kern: < = below
!!!RDF**kern: > = above
!!!RDF**kern: | = vertical stroke
!!!ENC: Andrzej Gręziak
!!!END: 2020-04-25
!!!ENC: Marta Chmielewska
!!!END: 2021-12-30
